ES/traffic_signs/ES/ES_P1.svg

<?xml version="1.0" encoding="UTF-8" standalone="no"?>
<!-- Created with Inkscape (http://www.inkscape.org/) -->

<svg
   xmlns:dc="http://purl.org/dc/elements/1.1/"
   xmlns:cc="http://creativecommons.org/ns#"
   xmlns:rdf="http://www.w3.org/1999/02/22-rdf-syntax-ns#"
   xmlns:svg="http://www.w3.org/2000/svg"
   xmlns="http://www.w3.org/2000/svg"
   version="1.2"
   width="217.834"
   height="192.41901"
   id="svg2">
  <metadata
     id="metadata3087">
    <rdf:RDF>
      <cc:Work
         rdf:about="">
        <dc:format>image/svg+xml</dc:format>
        <dc:type
           rdf:resource="http://purl.org/dc/dcmitype/StillImage" />
        <dc:title></dc:title>
      </cc:Work>
    </rdf:RDF>
  </metadata>
  <defs
     id="defs3085" />
  <g
     id="Capa_1">
    <path
       d="M 14.125,192.418 C 6.32,192.418 0,186.098 0,178.297 0,175.754 0.672,173.379 1.84,171.32 L 96.668,7.096 C 99.104,2.859 103.676,0 108.916,0 c 5.238,0 9.813,2.859 12.254,7.096 l 94.82,164.225 c 1.172,2.059 1.844,4.434 1.844,6.977 0,7.801 -6.32,14.121 -14.121,14.121 H 14.125"
       id="path3077"
       style="fill:#e41408" />
    <path
       d="m 21.881,173.887 87.035,-150.707 87.035,150.707 -174.07,0"
       id="polyline3079"
       style="fill:#ffffff" />
    <path
       d="m 108.916,63.557 -17.211,17.207 0,25.865 -21.625,0 0,14.476 21.625,0 0,43.071 17.211,-17.211 17.215,17.211 0,-43.071 21.621,0 0,-14.476 -21.621,0 0,-25.865 -17.215,-17.207"
       id="polyline3081"
       style="fill:#1c1d20;fill-rule:evenodd" />
  </g>
</svg>

<?xml version="1.0" encoding="UTF-8" standalone="no"?>
<!-- Created with Inkscape (http://www.inkscape.org/) -->

<svg
   version="1.2"
   width="100"
   height="87.302895"
   id="svg2"
   sodipodi:docname="ES_P1.svg"
   inkscape:version="1.3.2 (091e20e, 2023-11-25, custom)"
   xmlns:inkscape="http://www.inkscape.org/namespaces/inkscape"
   xmlns:sodipodi="http://sodipodi.sourceforge.net/DTD/sodipodi-0.dtd"
   xmlns="http://www.w3.org/2000/svg"
   xmlns:svg="http://www.w3.org/2000/svg"
   xmlns:rdf="http://www.w3.org/1999/02/22-rdf-syntax-ns#"
   xmlns:cc="http://creativecommons.org/ns#"
   xmlns:dc="http://purl.org/dc/elements/1.1/">
  <sodipodi:namedview
     id="namedview1"
     pagecolor="#ffffff"
     bordercolor="#000000"
     borderopacity="0.25"
     inkscape:showpageshadow="2"
     inkscape:pageopacity="0.0"
     inkscape:pagecheckerboard="0"
     inkscape:deskcolor="#d1d1d1"
     inkscape:zoom="9.404041"
     inkscape:cx="50.031683"
     inkscape:cy="43.651447"
     inkscape:window-width="1920"
     inkscape:window-height="1017"
     inkscape:window-x="-8"
     inkscape:window-y="-8"
     inkscape:window-maximized="1"
     inkscape:current-layer="svg2" />
  <metadata
     id="metadata3087">
    <rdf:RDF>
      <cc:Work
         rdf:about="">
        <dc:format>image/svg+xml</dc:format>
        <dc:type
           rdf:resource="http://purl.org/dc/dcmitype/StillImage" />
      </cc:Work>
    </rdf:RDF>
  </metadata>
  <defs
     id="defs3085" />
  <g
     id="Capa_1"
     transform="scale(0.45371246)">
    <path
       d="M 14.125,192.418 C 6.32,192.418 0,186.098 0,178.297 0,175.754 0.672,173.379 1.84,171.32 L 96.668,7.096 C 99.104,2.859 103.676,0 108.916,0 c 5.238,0 9.813,2.859 12.254,7.096 l 94.82,164.225 c 1.172,2.059 1.844,4.434 1.844,6.977 0,7.801 -6.32,14.121 -14.121,14.121 H 14.125"
       id="path3077"
       style="fill:#e41408" />
    <path
       d="M 21.881,173.887 108.916,23.18 195.951,173.887 H 21.881"
       id="polyline3079"
       style="fill:#ffffff" />
    <path
       d="M 108.916,63.557 91.705,80.764 v 25.865 H 70.08 v 14.476 h 21.625 v 43.071 l 17.211,-17.211 17.215,17.211 v -43.071 h 21.621 V 106.629 H 126.131 V 80.764 L 108.916,63.557"
       id="polyline3081"
       style="fill:#1c1d20;fill-rule:evenodd" />
  </g>
</svg>
